X:7
T: The Black Velvet Waltz / The Whiskey Waltz  (Hank Haley) %%X:3 WJ 2015
M: 3/4
L: 1/8
K: C
% %%vskip .2cm
                                                         G,  A,B, |\
 "C"C3 B, CE |G2 E2    C2   | "F"F3    E FA      | c2 (3(BcB) A2   |\
 "C"C3 B, CE |G2 F2    E2   |"G7"D3   ^C DE      | D3     G,  A,B, |
 "C"C3 B, CE |G2 E2    C2   | "F"F3    E FA      | c2 (3(BcB) A2   |\
"G7"G3 ^F GB |d2 BG (3(Bcd) |"C"[c4E4]  [cE][dE] |[c3E3]           ||
                                                       e f^f |\
 "C"g3 ^f ga |g2 e2    d2   | "F"c3    B cd      | c2 A2 c2  |\
 "C"g3 ^f ga |g2 f2    e2   |"G7"d3   ^c de      | d3  e f^f |
 "C"g3 ^f ga |g2 e2    d2   | "F"c3    B cd      | c2 A2 c2  |\
"G7"G3 ^F GB |d2 BG (3(Acd) | "C"[c4E4] [cE][dE] |[c3E3]     |]
% %%stretchlast

